dist/img/technologies/codesandbox.svg

<svg width="48" height="48" viewBox="0 0 48 48" fill="none" xmlns="http://www.w3.org/2000/svg">
<path d="M42 32V16C41.9993 15.2986 41.8141 14.6097 41.4631 14.0024C41.112 13.3951 40.6075 12.8908 40 12.54L26 4.54005C25.3919 4.18898 24.7021 4.00415 24 4.00415C23.2979 4.00415 22.6081 4.18898 22 4.54005L8 12.54C7.39253 12.8908 6.88796 13.3951 6.53692 14.0024C6.18589 14.6097 6.00072 15.2986 6 16V32C6.00072 32.7015 6.18589 33.3904 6.53692 33.9977C6.88796 34.605 7.39253 35.1093 8 35.46L22 43.46C22.6081 43.8111 23.2979 43.9959 24 43.9959C24.7021 43.9959 25.3919 43.8111 26 43.46L40 35.46C40.6075 35.1093 41.112 34.605 41.4631 33.9977C41.8141 33.3904 41.9993 32.7015 42 32Z" stroke="#C7C3C1" stroke-width="2" stroke-linecap="round" stroke-linejoin="round"/>
<path d="M15 8.41992L24 13.6199L33 8.41992" stroke="#C7C3C1" stroke-width="2" stroke-linecap="round" stroke-linejoin="round"/>
<path d="M15 39.58V29.2L6 24" stroke="#C7C3C1" stroke-width="2" stroke-linecap="round" stroke-linejoin="round"/>
<path d="M42 24L33 29.2V39.58" stroke="#C7C3C1" stroke-width="2" stroke-linecap="round" stroke-linejoin="round"/>
<path d="M6.54004 13.9199L24 24.0199L41.46 13.9199" stroke="#C7C3C1" stroke-width="2" stroke-linecap="round" stroke-linejoin="round"/>
<path d="M24 44.16V24" stroke="#C7C3C1" stroke-width="2" stroke-linecap="round" stroke-linejoin="round"/>
</svg>

<svg width="48" height="48" fill="none" xmlns="http://www.w3.org/2000/svg"><path d="M42 32V16a4 4 0 0 0-2-3.46l-14-8a4 4 0 0 0-4 0l-14 8A4 4 0 0 0 6 16v16a4 4 0 0 0 2 3.46l14 8a4 4 0 0 0 4 0l14-8A4 4 0 0 0 42 32Z" stroke="#C7C3C1" stroke-width="2" stroke-linecap="round" stroke-linejoin="round"/><path d="m15 8.42 9 5.2 9-5.2M15 39.58V29.2L6 24m36 0-9 5.2v10.38M6.54 13.92 24 24.02l17.46-10.1M24 44.16V24" stroke="#C7C3C1" stroke-width="2" stroke-linecap="round" stroke-linejoin="round"/></svg>
